flaticon/design/vector.svg

<svg xmlns="http://www.w3.org/2000/svg" width="32" height="32" viewBox="0 0 24 24">
    <path d="M1.898438 14.089844C1.933594 14.101562 1.972656 14.105469 2.007812 14.105469 2.179688 14.105469 2.339844 13.992188 2.390625 13.816406 2.464844 13.570312 2.542969 13.324219 2.632812 13.089844 2.710938 12.882812 2.605469 12.652344 2.398438 12.574219 2.195312 12.496094 1.960938 12.601562 1.886719 12.808594 1.789062 13.0625 1.699219 13.328125 1.625 13.59375 1.5625 13.808594 1.683594 14.03125 1.898438 14.089844zM2.011719 16.089844C2.027344 15.832031 2.046875 15.574219 2.082031 15.320312 2.109375 15.101562 1.953125 14.902344 1.734375 14.875 1.519531 14.847656 1.316406 15 1.289062 15.222656 1.253906 15.492188 1.226562 15.769531 1.214844 16.046875 1.210938 16.101562 1.21875 16.152344 1.238281 16.199219L0 16.199219 0 19.398438 3.199219 19.398438 3.199219 16.199219 1.984375 16.199219C1.996094 16.164062 2.011719 16.128906 2.011719 16.089844zM2.398438 18.601562L.800781 18.601562.800781 17 2.398438 17zM4.632812 8.703125C4.429688 8.890625 4.234375 9.089844 4.046875 9.292969 3.898438 9.457031 3.910156 9.710938 4.070312 9.859375 4.148438 9.929688 4.246094 9.964844 4.34375 9.964844 4.449219 9.964844 4.558594 9.921875 4.636719 9.835938 4.808594 9.648438 4.992188 9.464844 5.179688 9.289062 5.339844 9.140625 5.347656 8.886719 5.199219 8.722656 5.046875 8.5625 4.796875 8.554688 4.632812 8.703125zM3.023438 10.597656C2.867188 10.824219 2.722656 11.0625 2.585938 11.304688 2.476562 11.496094 2.546875 11.742188 2.738281 11.847656 2.800781 11.882812 2.867188 11.902344 2.933594 11.902344 3.074219 11.902344 3.210938 11.828125 3.28125 11.695312 3.410156 11.472656 3.542969 11.253906 3.6875 11.042969 3.808594 10.859375 3.761719 10.609375 3.578125 10.488281 3.394531 10.363281 3.144531 10.414062 3.023438 10.597656zM6.632812 7.226562C6.394531 7.363281 6.160156 7.511719 5.929688 7.667969 5.746094 7.792969 5.699219 8.042969 5.824219 8.222656 5.902344 8.339844 6.027344 8.398438 6.15625 8.398438 6.234375 8.398438 6.3125 8.375 6.378906 8.328125 6.589844 8.1875 6.8125 8.046875 7.03125 7.921875 7.222656 7.8125 7.289062 7.566406 7.179688 7.375 7.070312 7.183594 6.824219 7.117188 6.632812 7.226562zM21.316406 12.371094C21.375 12.371094 21.4375 12.355469 21.492188 12.328125 21.691406 12.226562 21.769531 11.988281 21.671875 11.789062 21.546875 11.542969 21.414062 11.296875 21.273438 11.0625 21.160156 10.871094 20.914062 10.8125 20.722656 10.925781 20.535156 11.039062 20.472656 11.285156 20.585938 11.472656 20.71875 11.691406 20.839844 11.917969 20.957031 12.148438 21.027344 12.289062 21.167969 12.371094 21.316406 12.371094zM21.316406 12.371094"/>
    <path d="M16.375 6.726562C16.273438 6.679688 16.164062 6.644531 16.058594 6.601562L20.855469 6.601562C21.035156 7.289062 21.65625 7.800781 22.398438 7.800781 23.28125 7.800781 24 7.082031 24 6.199219 24 5.316406 23.28125 4.601562 22.398438 4.601562 21.65625 4.601562 21.035156 5.113281 20.855469 5.800781L13.601562 5.800781 13.601562 4.601562 10.398438 4.601562 10.398438 5.800781 3.144531 5.800781C2.964844 5.113281 2.34375 4.601562 1.601562 4.601562.71875 4.601562 0 5.316406 0 6.199219 0 7.082031.71875 7.800781 1.601562 7.800781 2.34375 7.800781 2.964844 7.289062 3.144531 6.601562L8 6.601562C7.886719 6.707031 7.84375 6.878906 7.902344 7.03125 7.964844 7.191406 8.117188 7.289062 8.277344 7.289062 8.324219 7.289062 8.375 7.28125 8.421875 7.261719 8.660156 7.171875 8.902344 7.085938 9.148438 7.015625 9.332031 6.960938 9.441406 6.785156 9.425781 6.601562L10.351562 6.601562C10.367188 6.613281 10.382812 6.632812 10.402344 6.644531L10.402344 7.800781 13.601562 7.800781 13.601562 6.734375C13.683594 6.746094 13.769531 6.757812 13.855469 6.773438 13.878906 6.78125 13.90625 6.78125 13.929688 6.78125 14.066406 6.78125 14.1875 6.710938 14.261719 6.601562L15.132812 6.601562C15.121094 6.621094 15.105469 6.636719 15.09375 6.664062 15.019531 6.871094 15.128906 7.097656 15.339844 7.171875 15.578125 7.257812 15.820312 7.355469 16.050781 7.457031 16.105469 7.480469 16.160156 7.492188 16.214844 7.492188 16.367188 7.492188 16.515625 7.402344 16.582031 7.253906 16.667969 7.050781 16.578125 6.816406 16.375 6.726562zM22.398438 5.398438C22.839844 5.398438 23.199219 5.757812 23.199219 6.199219 23.199219 6.640625 22.839844 7 22.398438 7 21.957031 7 21.601562 6.640625 21.601562 6.199219 21.601562 5.757812 21.957031 5.398438 22.398438 5.398438zM1.601562 7C1.160156 7 .800781 6.640625.800781 6.199219.800781 5.757812 1.160156 5.398438 1.601562 5.398438 2.042969 5.398438 2.398438 5.757812 2.398438 6.199219 2.398438 6.640625 2.042969 7 1.601562 7zM11.867188 7L11.199219 7 11.199219 5.398438 12.800781 5.398438 12.800781 7zM22.769531 15.769531C22.75 15.550781 22.5625 15.386719 22.339844 15.402344 22.117188 15.417969 21.953125 15.609375 21.972656 15.832031 21.980469 15.953125 21.980469 16.078125 21.984375 16.199219L20.800781 16.199219 20.800781 19.398438 24 19.398438 24 16.199219 22.785156 16.199219C22.78125 16.054688 22.777344 15.914062 22.769531 15.769531zM23.199219 18.601562L21.601562 18.601562 21.601562 17 23.199219 17zM19.757812 9.089844C19.605469 8.929688 19.351562 8.925781 19.191406 9.082031 19.035156 9.234375 19.03125 9.488281 19.183594 9.644531 19.359375 9.828125 19.535156 10.023438 19.699219 10.21875 19.777344 10.3125 19.890625 10.363281 20.007812 10.363281 20.097656 10.363281 20.1875 10.332031 20.261719 10.269531 20.429688 10.128906 20.453125 9.878906 20.3125 9.707031 20.136719 9.496094 19.949219 9.285156 19.757812 9.089844zM21.792969 13.070312C21.582031 13.136719 21.464844 13.359375 21.53125 13.570312 21.609375 13.816406 21.679688 14.0625 21.738281 14.3125 21.78125 14.496094 21.945312 14.621094 22.125 14.621094 22.15625 14.621094 22.1875 14.617188 22.21875 14.613281 22.433594 14.5625 22.566406 14.347656 22.515625 14.128906 22.453125 13.863281 22.378906 13.59375 22.296875 13.328125 22.226562 13.121094 22.003906 13.003906 21.792969 13.070312zM21.792969 13.070312"/>
    <path d="M 17.835938 7.515625 C 17.652344 7.394531 17.402344 7.449219 17.285156 7.632812 C 17.164062 7.820312 17.21875 8.066406 17.402344 8.1875 C 17.621094 8.324219 17.832031 8.472656 18.035156 8.628906 C 18.105469 8.683594 18.191406 8.707031 18.277344 8.707031 C 18.398438 8.707031 18.515625 8.652344 18.59375 8.550781 C 18.726562 8.375 18.695312 8.125 18.515625 7.988281 C 18.296875 7.824219 18.070312 7.664062 17.835938 7.515625 Z M 17.835938 7.515625"/>
</svg>

<svg xmlns="http://www.w3.org/2000/svg" width="32" height="32" viewBox="0 0 24 24">
    <path d="M1.898 14.09a.4.4 0 0 0 .492-.273c.075-.247.153-.493.243-.727a.4.4 0 0 0-.235-.516.396.396 0 0 0-.511.235c-.098.254-.188.52-.262.785a.396.396 0 0 0 .273.496zm0 0M2.012 16.09c.015-.258.035-.516.07-.77a.4.4 0 0 0-.793-.097c-.035.27-.062.547-.074.824a.33.33 0 0 0 .023.152H0v3.2h3.2v-3.2H1.983c.012-.035.028-.07.028-.11zm.386 2.512H.801V17h1.597zm0 0M4.633 8.703c-.203.188-.399.387-.586.59a.405.405 0 0 0 .023.566c.078.07.176.106.274.106a.397.397 0 0 0 .293-.13c.172-.187.355-.37.543-.546a.404.404 0 0 0 .02-.566.405.405 0 0 0-.567-.02zm0 0M3.023 10.598c-.156.226-.3.464-.437.707a.398.398 0 0 0 .152.543.392.392 0 0 0 .543-.152c.13-.223.262-.442.406-.653a.4.4 0 0 0-.109-.555.397.397 0 0 0-.555.11zm0 0M6.633 7.227c-.238.136-.473.285-.703.441a.398.398 0 0 0-.106.555.393.393 0 0 0 .555.105c.21-.14.434-.281.652-.406a.402.402 0 0 0 .149-.547.402.402 0 0 0-.547-.148zm0 0M21.316 12.371a.402.402 0 0 0 .356-.582 11.842 11.842 0 0 0-.399-.726.4.4 0 0 0-.687.41c.133.218.254.445.371.675a.4.4 0 0 0 .36.223zm0 0"/>
    <path d="M16.375 6.727c-.102-.047-.21-.082-.316-.125h4.796c.18.687.801 1.199 1.543 1.199a1.6 1.6 0 0 0 0-3.2 1.6 1.6 0 0 0-1.543 1.2h-7.253V4.6h-3.204v1.2H3.145a1.6 1.6 0 0 0-1.543-1.2A1.6 1.6 0 0 0 0 6.2c0 .883.719 1.602 1.602 1.602a1.6 1.6 0 0 0 1.543-1.2H8a.397.397 0 0 0-.098.43.404.404 0 0 0 .52.23c.238-.09.48-.175.726-.245a.393.393 0 0 0 .278-.414h.926c.015.011.03.03.05.043V7.8h3.2V6.734c.082.012.168.024.253.04.024.007.051.007.075.007a.4.4 0 0 0 .332-.18h.87c-.01.02-.027.036-.038.063a.396.396 0 0 0 .246.508c.238.086.48.183.71.285a.405.405 0 0 0 .531-.203.403.403 0 0 0-.206-.527zm6.023-1.329a.802.802 0 0 1 0 1.602.799.799 0 0 1-.796-.8c0-.442.355-.802.796-.802zM1.602 7a.802.802 0 0 1 0-1.602c.441 0 .796.36.796.801 0 .442-.355.801-.796.801zm10.265 0H11.2V5.398h1.602V7zm0 0M22.77 15.77a.401.401 0 0 0-.43-.368.394.394 0 0 0-.367.43c.007.121.007.246.011.367h-1.183v3.2H24v-3.2h-1.215a15.784 15.784 0 0 0-.015-.43zm.43 2.832h-1.598V17h1.597zm0 0M19.758 9.09a.4.4 0 0 0-.574.555 12 12 0 0 1 .515.574.4.4 0 0 0 .563.05.401.401 0 0 0 .05-.562c-.175-.21-.363-.422-.554-.617zm0 0M21.793 13.07a.398.398 0 0 0-.262.5c.078.246.149.492.207.742a.4.4 0 0 0 .387.31.758.758 0 0 0 .094-.009.401.401 0 0 0 .297-.484 12.195 12.195 0 0 0-.22-.8.405.405 0 0 0-.503-.259zm0 0"/>
    <path d="M17.836 7.516a.397.397 0 0 0-.55.117.402.402 0 0 0 .116.554c.22.137.43.286.633.442a.39.39 0 0 0 .242.078.4.4 0 0 0 .238-.719 10.509 10.509 0 0 0-.68-.472zm0 0"/>
</svg>
